src/ios-more-outline.svg

<?xml version="1.0" encoding="utf-8"?>
<!-- Generated by IcoMoon.io -->
<!DOCTYPE svg PUBLIC "-//W3C//DTD SVG 1.1//EN" "http://www.w3.org/Graphics/SVG/1.1/DTD/svg11.dtd">
<svg version="1.1" xmlns="http://www.w3.org/2000/svg" xmlns:xlink="http://www.w3.org/1999/xlink" width="512" height="512" viewBox="0 0 512 512">
<path fill="#000000" d="M256 238c9.9 0 18 8.1 18 18s-8.1 18-18 18-18-8.1-18-18 8.1-18 18-18zM256 224c-17.7 0-32 14.3-32 32s14.3 32 32 32c17.7 0 32-14.3 32-32s-14.3-32-32-32v0z"></path>
<path fill="#000000" d="M128.4 238c9.9 0 18 8.1 18 18s-8.1 18-18 18c-9.9 0-18-8.1-18-18s8.1-18 18-18zM128.4 224c-17.7 0-32 14.3-32 32s14.3 32 32 32c17.7 0 32-14.3 32-32s-14.4-32-32-32v0z"></path>
<path fill="#000000" d="M384 238c9.9 0 18 8.1 18 18s-8.1 18-18 18-18-8.1-18-18 8.1-18 18-18zM384 224c-17.7 0-32 14.3-32 32s14.3 32 32 32 32-14.3 32-32-14.3-32-32-32v0z"></path>
</svg>

<?xml version="1.0" encoding="utf-8"?>
<!-- Generator: Adobe Illustrator 16.2.1, SVG Export Plug-In . SVG Version: 6.00 Build 0)  -->
<!DOCTYPE svg PUBLIC "-//W3C//DTD SVG 1.1//EN" "http://www.w3.org/Graphics/SVG/1.1/DTD/svg11.dtd">
<svg version="1.1" id="Layer_1" xmlns="http://www.w3.org/2000/svg" xmlns:xlink="http://www.w3.org/1999/xlink" x="0px" y="0px"
	 width="512px" height="512px" viewBox="0 0 512 512" style="enable-background:new 0 0 512 512;" xml:space="preserve">
<g>
	<path d="M256,238c9.9,0,18,8.1,18,18s-8.1,18-18,18s-18-8.1-18-18S246.1,238,256,238 M256,224c-17.7,0-32,14.3-32,32s14.3,32,32,32
		c17.7,0,32-14.3,32-32S273.7,224,256,224L256,224z"/>
	<path d="M128.4,238c9.9,0,18,8.1,18,18s-8.1,18-18,18c-9.9,0-18-8.1-18-18S118.5,238,128.4,238 M128.4,224c-17.7,0-32,14.3-32,32
		s14.3,32,32,32c17.7,0,32-14.3,32-32S146,224,128.4,224L128.4,224z"/>
	<path d="M384,238c9.9,0,18,8.1,18,18s-8.1,18-18,18s-18-8.1-18-18S374.1,238,384,238 M384,224c-17.7,0-32,14.3-32,32s14.3,32,32,32
		s32-14.3,32-32S401.7,224,384,224L384,224z"/>
</g>
</svg>
